svg/file-icons/Fancy.svg

<svg version="1.1" xmlns="http://www.w3.org/2000/svg" width="341px" height="512px"><path d="M242.2748413,0L66.0381165,98.2427216L0,341.5119019L101.9018402,512l173.1153107-95.180603l65.7870483-245.0799713L242.2748413,0z M177.9246826,164.1259003l-63.7584381-50.9958954l91.6190948-51.0737267L177.9246826,164.1259003z M241.0783691,71.1351318l49.4759521,86.2351837l-77.2027893,15.3433228L241.0783691,71.1351318z M91.9179535,141.9930267l75.55336,60.4293365l-27.1729431,99.5503845l-95.7743835,14.6087036L91.9179535,141.9930267z M102.213562,441.4989319l-53.0555115-88.7647705l80.6425934-12.3022156L102.213562,441.4989319z M164.8649902,350.3463745l62.2423401,51.2349548l-89.6869812,49.3092957L164.8649902,350.3463745z M249.1744995,372.5541382l-73.7913818-60.7415771l27.2463074-99.8178711l94.6955566-18.8210754L249.1744995,372.5541382z"/></svg>

<svg xmlns="http://www.w3.org/2000/svg" width="341" height="512"><path d="M242.275 0 66.038 98.243 0 341.512 101.902 512l173.115-95.18 65.787-245.08L242.274 0zm-64.35 164.126-63.759-50.996 91.62-51.074-27.861 102.07zm63.153-92.99 49.476 86.234-77.202 15.344 27.726-101.579zm-149.16 70.857 75.553 60.43-27.173 99.55-95.774 14.608 47.394-174.588zm10.296 299.506-53.056-88.765 80.643-12.302-27.587 101.067zm62.651-91.153 62.242 51.235-89.687 49.31 27.445-100.545zm84.31 22.208-73.792-60.741 27.246-99.818 94.696-18.821-48.15 179.38z"/></svg>
